dist/assets/img/svg/vk-icon.svg

<svg width="20" height="12" viewBox="0 0 20 12"  xmlns="http://www.w3.org/2000/svg">
<path d="M18.5352 1.39844C18.4648 1.75 18.1836 2.32422 17.6914 3.12109C17.2227 3.91797 16.7891 4.62109 16.3906 5.23047C15.9922 5.81641 15.7812 6.12109 15.7578 6.14453C15.6172 6.35547 15.5469 6.50781 15.5469 6.60156C15.5469 6.69531 15.6172 6.85938 15.7578 7.09375C15.7578 7.09375 15.9102 7.25781 16.2148 7.58594C16.543 7.91406 16.8828 8.26562 17.2344 8.64062C17.5859 9.01562 17.9258 9.4375 18.2539 9.90625C18.6055 10.3516 18.8281 10.7148 18.9219 10.9961C19.0859 11.582 18.8516 11.875 18.2188 11.875H16.1445C15.957 11.875 15.7695 11.8281 15.582 11.7344C15.418 11.6406 15.2773 11.5352 15.1602 11.418C15.043 11.2773 14.832 11.043 14.5273 10.7148C14.2461 10.3867 13.9766 10.0938 13.7188 9.83594C12.7812 8.94531 12.0898 8.5 11.6445 8.5C11.3633 8.5 11.1992 8.58203 11.1523 8.74609C11.1055 8.91016 11.082 9.37891 11.082 10.1523C11.1055 10.5273 11.1172 10.832 11.1172 11.0664C11.1172 11.3477 11.0234 11.5586 10.8359 11.6992C10.6484 11.8164 10.2383 11.875 9.60547 11.875C8.50391 11.875 7.39062 11.5469 6.26562 10.8906C5.14062 10.2344 4.15625 9.29688 3.3125 8.07812C2.51562 7 1.84766 5.93359 1.30859 4.87891C0.792969 3.80078 0.453125 2.98047 0.289062 2.41797C0.125 1.85547 0.0429688 1.45703 0.0429688 1.22266C0.0429688 0.824219 0.277344 0.625 0.746094 0.625H2.82031C3.07812 0.625 3.26562 0.683594 3.38281 0.800781C3.52344 0.917969 3.64062 1.12891 3.73438 1.43359C4.22656 2.86328 4.82422 4.14062 5.52734 5.26562C6.25391 6.39062 6.80469 6.95312 7.17969 6.95312C7.32031 6.95312 7.41406 6.90625 7.46094 6.8125C7.53125 6.69531 7.56641 6.48438 7.56641 6.17969V3.12109C7.51953 2.58203 7.36719 2.13672 7.10938 1.78516C6.85156 1.43359 6.72266 1.21094 6.72266 1.11719C6.72266 0.976562 6.76953 0.859375 6.86328 0.765625C6.98047 0.671875 7.10938 0.625 7.25 0.625H10.5195C10.8945 0.625 11.082 0.882812 11.082 1.39844V5.47656C11.082 5.875 11.1875 6.07422 11.3984 6.07422C11.6328 6.07422 11.9609 5.86328 12.3828 5.44141C12.8281 4.94922 13.2617 4.35156 13.6836 3.64844C14.1055 2.94531 14.4219 2.35937 14.6328 1.89062L14.9492 1.22266C15.1133 0.824219 15.4062 0.625 15.8281 0.625H17.9023C18.4648 0.625 18.6758 0.882812 18.5352 1.39844Z" />
</svg>

<svg width="20" height="12" xmlns="http://www.w3.org/2000/svg"><path d="M18.535 1.398c-.07.352-.351.926-.844 1.723-.468.797-.902 1.5-1.3 2.11-.399.585-.61.89-.633.914-.14.21-.211.363-.211.457 0 .093.07.257.21.492l.458.492c.328.328.668.68 1.02 1.055.35.375.69.796 1.019 1.265.351.446.574.809.668 1.09.164.586-.07.879-.703.879h-2.075c-.187 0-.374-.047-.562-.14a1.984 1.984 0 01-.422-.317c-.117-.14-.328-.375-.633-.703-.28-.328-.55-.621-.808-.88-.938-.89-1.63-1.335-2.074-1.335-.282 0-.446.082-.493.246-.046.164-.07.633-.07 1.406.023.375.035.68.035.914 0 .282-.094.493-.281.633-.188.117-.598.176-1.23.176-1.102 0-2.215-.328-3.34-.984-1.125-.657-2.11-1.594-2.954-2.813a23.07 23.07 0 01-2.003-3.2C.793 3.802.453 2.98.289 2.419.125 1.855.043 1.457.043 1.223c0-.399.234-.598.703-.598H2.82c.258 0 .446.059.563.176.14.117.258.328.351.633.493 1.43 1.09 2.707 1.793 3.832.727 1.125 1.278 1.687 1.653 1.687.14 0 .234-.047.28-.14.071-.118.106-.329.106-.633V3.12c-.046-.539-.199-.984-.457-1.336-.257-.351-.386-.574-.386-.668 0-.14.047-.258.14-.351a.605.605 0 01.387-.14h3.27c.375 0 .562.258.562.773v4.079c0 .398.105.597.316.597.235 0 .563-.21.985-.633.445-.492.879-1.09 1.3-1.793.422-.703.739-1.289.95-1.757l.316-.668c.164-.399.457-.598.88-.598h2.073c.563 0 .774.258.633.773z"/></svg>
